X:286
M:none
L:1/4
K:E
B, E | G2 G G | F E G3/2 F/ | !fermata!E2 E G | B2 B B | c B B3/2 G/ | F4 | (B2 e3/2 c/ | B4) | c B2 G| G3/2 F/ E E | F !fermata!E2 | E !fermata!E2 | B, B,3 | E A | G2 !sintro!G G | F E G3/2 F/ | E4 !eintro!|]
